public/images/very-popular.svg

<svg width="109" height="104" viewBox="0 0 109 104" fill="none" xmlns="http://www.w3.org/2000/svg">
<path d="M2.28572 37.4413C8.40045 14.6208 31.8571 1.07807 54.6776 7.1928L77.1779 13.2217C99.9984 19.3365 113.541 42.7931 107.426 65.6136C101.312 88.4341 77.855 101.977 55.0345 95.8621L32.5342 89.8331C9.7137 83.7184 -3.82902 60.2618 2.28572 37.4413Z" fill="#FFF4E0"/>
<path d="M47.381 16.9085L49.4928 16.6466L46.5661 26.4897L45.9409 26.5672L40.6843 17.7391L42.81 17.4754L45.7917 22.7485L47.381 16.9085Z" fill="#FBAE66"/>
<path d="M53.825 25.9077L54.995 16.7421L61.161 17.5291L60.9447 19.2234L56.6535 18.6756L56.416 20.5365L59.5684 20.9389L59.3645 22.536L56.2121 22.1336L55.9161 24.4528L60.3739 25.0218L60.1576 26.716L53.825 25.9077Z" fill="#FBAE66"/>
<path d="M70.3546 30.2798L68.3794 29.488L67.3711 25.5694L66.0847 25.0537L64.8709 28.0815L63.1166 27.3782L66.5548 18.8017L69.7775 20.0936C70.6784 20.4548 71.3167 21.0073 71.6922 21.7511C72.0677 22.4949 72.0905 23.2783 71.7606 24.1013C71.5453 24.6385 71.2165 25.0698 70.7743 25.3953C70.3442 25.7156 69.8441 25.8972 69.2739 25.9401L70.3546 30.2798ZM67.6892 21.0513L66.7046 23.5073L68.173 24.096C68.5801 24.2592 68.9415 24.2734 69.257 24.1384C69.5812 24.0069 69.818 23.755 69.9673 23.3824C70.1132 23.0186 70.11 22.6754 69.9577 22.3529C69.8141 22.0339 69.5474 21.7963 69.1576 21.64L67.6892 21.0513Z" fill="#FBAE66"/>
<path d="M83.868 28.3203L77.9956 30.9611L75.8452 33.898L74.3202 32.7815L76.4624 29.8559L77.2036 23.4405L78.8979 24.6812L78.3801 28.8482L82.185 27.088L83.868 28.3203Z" fill="#FBAE66"/>
<path d="M16.2786 64.4093L23.9036 59.1905L25.8646 62.0557C26.4129 62.8567 26.6364 63.6708 26.5352 64.4978C26.4339 65.3249 26.0175 65.9888 25.2858 66.4896C24.5618 66.9851 23.7921 67.133 22.9768 66.9333C22.1615 66.7335 21.4797 66.2331 20.9315 65.4321L20.0379 64.1266L17.346 65.969L16.2786 64.4093ZM21.4012 63.1935L22.2947 64.499C22.5425 64.861 22.835 65.0736 23.1723 65.1368C23.5226 65.2025 23.8634 65.1219 24.1946 64.8953C24.518 64.6739 24.7061 64.3868 24.7588 64.0341C24.8167 63.6891 24.727 63.3433 24.4898 62.9967L23.5963 61.6912L21.4012 63.1935Z" fill="#FBAE66"/>
<path d="M25.162 69.1801C26.002 68.1669 27.1001 67.6131 28.4564 67.5189C29.8198 67.4307 31.0001 67.8304 31.9973 68.7179C33.0309 69.5629 33.6114 70.6655 33.7391 72.0258C33.8738 73.3922 33.5071 74.5699 32.6387 75.5589C31.7988 76.5722 30.6935 77.1199 29.323 77.202C27.9596 77.2902 26.7793 76.8905 25.7821 76.0029C24.7486 75.158 24.168 74.0554 24.0403 72.6951C23.9198 71.3408 24.2937 70.1692 25.162 69.1801ZM31.1583 74.2959C31.7277 73.6284 31.9806 72.8934 31.917 72.0908C31.8666 71.2871 31.5183 70.6096 30.8722 70.0584C30.2189 69.501 29.4945 69.2572 28.699 69.3269C27.9034 69.3965 27.2179 69.7686 26.6425 70.4432C26.067 71.1177 25.8075 71.8533 25.864 72.6499C25.9205 73.4464 26.2754 74.1234 26.9286 74.6807C27.5747 75.2319 28.2956 75.4727 29.0911 75.4031C29.8937 75.3395 30.5828 74.9704 31.1583 74.2959Z" fill="#FBAE66"/>
<path d="M34.1121 81.8119L38.0674 73.4613L41.2052 74.9475C42.0825 75.363 42.6858 75.9534 43.0152 76.7188C43.3447 77.4841 43.3196 78.2675 42.94 79.0688C42.5645 79.8617 41.9743 80.3773 41.1694 80.6157C40.3646 80.8542 39.5235 80.7656 38.6463 80.3501L37.2165 79.6729L35.8202 82.621L34.1121 81.8119ZM37.9237 78.1799L39.3534 78.8571C39.7499 79.0449 40.1097 79.0811 40.4329 78.9656C40.7685 78.8458 41.0222 78.6045 41.194 78.2418C41.3618 77.8875 41.3795 77.5448 41.2472 77.2136C41.1234 76.8864 40.8716 76.6329 40.4921 76.4531L39.0623 75.776L37.9237 78.1799Z" fill="#FBAE66"/>
<path d="M45.9969 82.593L47.0127 77.2711L48.8692 77.6255L47.8272 83.0849C47.7029 83.7358 47.7892 84.2796 48.0859 84.7163C48.3843 85.1439 48.8315 85.4145 49.4274 85.5283C50.0325 85.6437 50.5479 85.5568 50.9737 85.2675C51.4104 84.9708 51.6909 84.497 51.8152 83.8461L52.8572 78.3866L54.7137 78.741L53.6979 84.0629C53.4722 85.2456 52.9289 86.1253 52.0682 86.7022C51.2074 87.279 50.2178 87.4607 49.0993 87.2472C47.9717 87.032 47.114 86.4977 46.5262 85.6444C45.9476 84.7928 45.7712 83.7757 45.9969 82.593Z" fill="#FBAE66"/>
<path d="M57.1163 87.9078L56.6695 78.6786L58.5573 78.5872L58.9215 86.1104L62.9627 85.9148L63.0453 87.6208L57.1163 87.9078Z" fill="#FBAE66"/>
<path d="M72.09 85.5869L71.2672 84.5666L67.6266 85.5833L67.4515 86.8823L65.4963 87.4284L66.9435 77.2562L67.5503 77.0867L74.0452 85.0408L72.09 85.5869ZM70.2155 83.2468L68.1891 80.5713L67.8423 83.9096L70.2155 83.2468Z" fill="#FBAE66"/>
<path d="M84.5678 79.6341L82.7208 80.6909L79.0229 79.0484L77.8199 79.7367L79.4399 82.5681L77.7994 83.5067L73.2107 75.4866L76.2243 73.7624C77.0668 73.2803 77.8962 73.123 78.7124 73.2904C79.5287 73.4578 80.1569 73.9263 80.5973 74.6959C80.8846 75.1982 81.0186 75.7237 80.9993 76.2725C80.9833 76.8085 80.8152 77.3133 80.4948 77.7869L84.5678 79.6341ZM75.6785 75.994L76.9925 78.2907L78.3657 77.5051C78.7464 77.2872 78.9819 77.0127 79.072 76.6816C79.1702 76.3458 79.1197 76.0037 78.9203 75.6554C78.7257 75.3152 78.4547 75.1046 78.1073 75.0238C77.7681 74.9383 77.4162 74.9998 77.0516 75.2084L75.6785 75.994Z" fill="#FBAE66"/>
<g clip-path="url(#clip0)">
<path d="M65.2371 57.966C65.2377 57.9628 65.2384 57.9595 65.2389 57.9564C65.4994 56.6009 65.5567 55.4059 65.419 54.2C65.4176 54.182 65.4158 54.1639 65.4134 54.1458C65.4046 54.08 64.5678 47.5366 66.5675 44.5996C66.748 44.3347 66.7852 43.9975 66.6671 43.6995C66.549 43.4015 66.2911 43.1819 65.9779 43.1121C65.894 43.0935 64.1786 42.7344 61.963 43.8314C61.2613 40.1734 61.9352 36.6674 61.9427 36.6292C62.0086 36.2982 61.8972 35.9569 61.6486 35.7286C61.4 35.5002 61.0505 35.4183 60.7263 35.5119C57.8492 36.3442 55.4471 37.6571 53.5867 39.4142C52.0846 40.8329 50.9362 42.5369 50.1733 44.4787C49.5431 46.0826 49.2832 47.5774 49.1838 48.703L46.2108 46.4423C45.9923 46.2762 45.7135 46.2106 45.4437 46.2625C45.1741 46.3142 44.9392 46.4782 44.7977 46.7133C44.3763 47.4135 44.0251 48.0709 43.724 48.723C42.6754 50.9943 42.1899 53.4781 42.3197 55.9062C42.4503 58.3471 43.1955 60.6187 44.4749 62.4754C45.814 64.4188 47.65 65.8058 49.8496 66.5793C50.0516 66.658 50.2591 66.7273 50.4732 66.7846C50.5179 66.7966 50.5635 66.8067 50.6086 66.8176C50.6454 66.8279 50.6821 66.8385 50.7191 66.8485C52.1468 67.231 53.7092 67.3723 55.3741 67.2582C58.0151 67.0772 60.3708 65.9483 62.1864 63.9937C63.6954 62.369 64.7789 60.2283 65.2371 57.966ZM56.6058 61.5899C56.2414 62.9067 54.741 64.9211 52.6774 65.0625C52.121 65.1007 51.6051 65.0645 51.1342 64.9572C50.9148 64.8961 50.6993 64.8281 50.4877 64.7532C49.8328 64.4832 49.2907 64.0468 48.8803 63.4513C48.0221 62.2059 47.8856 60.4209 48.5038 58.8131C49.2515 59.3521 50.3408 59.8041 51.7909 59.7955C54.1231 59.7819 55.5736 57.6621 56.3797 55.8863C56.4328 55.7691 56.4839 55.6522 56.533 55.5359C57.2093 58.5625 56.9524 60.337 56.6058 61.5899ZM60.77 62.6782C59.6088 63.9284 58.2281 64.7454 56.6526 65.1181C57.5192 64.2457 58.1782 63.1557 58.4688 62.1053C59.2472 59.2913 58.9438 56.1279 57.485 51.8481C57.3434 51.4328 56.9399 51.1647 56.502 51.1959C56.0643 51.2269 55.7024 51.5488 55.6207 51.98C55.3322 53.502 54.0074 57.8497 51.7795 57.8626C49.883 57.8739 49.1598 56.803 49.091 56.6936C48.9289 56.3824 48.6179 56.1977 48.2665 56.1884C47.9126 56.1793 47.5898 56.3788 47.4126 56.6853C47.3774 56.7461 47.0643 57.2898 46.8963 57.6536C46.306 58.9324 46.0847 60.3025 46.221 61.5952C46.1688 61.5238 46.117 61.4519 46.0665 61.3785C44.9895 59.8156 44.3613 57.8876 44.2498 55.8029C44.1368 53.6879 44.5618 51.5198 45.4788 49.5333C45.6134 49.2421 45.7595 48.9487 45.9195 48.6492L49.5353 51.3985C49.841 51.631 50.2551 51.6593 50.5905 51.4723C50.9259 51.2855 51.1188 50.9165 51.0821 50.5344C51.0797 50.5092 50.8532 47.9805 52.0023 45.11C52.6669 43.4497 53.6594 41.9941 54.9523 40.7834C56.266 39.5533 57.9007 38.5681 59.8259 37.8447C59.6492 39.622 59.5536 42.6335 60.3965 45.5984C60.4821 45.8995 60.7083 46.1406 61.0034 46.2451C61.2983 46.349 61.626 46.3048 61.8821 46.1246C62.7571 45.5092 63.5511 45.2133 64.1767 45.0769C62.8249 48.677 63.4192 53.7842 63.4917 54.357C63.4926 54.3662 63.4935 54.3755 63.4946 54.3846C63.6143 55.4006 63.5657 56.4182 63.3416 57.5869C62.9525 59.5036 62.0392 61.3116 60.77 62.6782Z" fill="#FBAE66"/>
</g>
<defs>
<clipPath id="clip0">
<rect width="33" height="33" fill="white" transform="translate(43.3574 30.7148) rotate(15)"/>
</clipPath>
</defs>
</svg>

<svg width="109" height="104" fill="none" xmlns="http://www.w3.org/2000/svg"><path d="M2.286 37.441C8.4 14.621 31.857 1.078 54.678 7.193l22.5 6.029c22.82 6.115 36.363 29.571 30.248 52.392-6.114 22.82-29.571 36.363-52.392 30.248l-22.5-6.029C9.714 83.718-3.829 60.262 2.286 37.441z" fill="#FFF4E0"/><path d="M47.381 16.909l2.112-.262-2.927 9.843-.625.077-5.257-8.828 2.126-.264 2.982 5.273 1.589-5.84zM53.825 25.908l1.17-9.166 6.166.787-.216 1.694-4.291-.547-.238 1.86 3.152.403-.203 1.597-3.153-.402-.296 2.319 4.458.569-.216 1.694-6.333-.808zM70.355 30.28l-1.976-.792-1.008-3.919-1.286-.515-1.214 3.027-1.754-.703 3.438-8.576 3.222 1.292c.901.36 1.54.913 1.915 1.657.376.744.399 1.527.069 2.35a2.915 2.915 0 01-.987 1.294c-.43.32-.93.502-1.5.545l1.08 4.34zm-2.666-9.229l-.984 2.456 1.468.589c.407.163.769.177 1.084.042.324-.131.561-.383.71-.756.146-.363.143-.707-.01-1.03-.143-.318-.41-.556-.8-.712l-1.468-.589zM83.868 28.32l-5.872 2.641-2.15 2.937-1.526-1.117 2.142-2.925.742-6.416 1.694 1.241-.518 4.167 3.805-1.76 1.683 1.232zM16.279 64.41l7.625-5.22 1.96 2.866c.549.8.772 1.615.671 2.442-.101.827-.518 1.49-1.25 1.992-.723.495-1.493.643-2.308.443-.816-.2-1.497-.7-2.046-1.5l-.893-1.306-2.692 1.842-1.067-1.56zm5.122-1.216l.894 1.305c.247.362.54.575.877.638.35.066.691-.015 1.023-.242.323-.221.511-.508.564-.86.058-.346-.032-.692-.27-1.038l-.893-1.306-2.195 1.502zM25.162 69.18c.84-1.013 1.938-1.567 3.294-1.661 1.364-.088 2.544.311 3.541 1.199 1.034.845 1.614 1.947 1.742 3.308.135 1.366-.232 2.544-1.1 3.533-.84 1.013-1.946 1.56-3.316 1.643-1.363.088-2.544-.311-3.54-1.2-1.034-.844-1.615-1.947-1.743-3.307-.12-1.354.254-2.526 1.122-3.515zm5.996 5.116c.57-.668.823-1.403.759-2.205-.05-.804-.399-1.481-1.045-2.033-.653-.557-1.378-.8-2.173-.731-.796.07-1.481.442-2.057 1.116-.575.675-.834 1.41-.778 2.207.056.796.411 1.473 1.065 2.03.646.552 1.367.793 2.162.723.803-.064 1.492-.433 2.067-1.107zM34.112 81.812l3.955-8.35 3.138 1.486c.878.415 1.48 1.005 1.81 1.77.33.766.305 1.55-.075 2.35-.375.794-.966 1.31-1.77 1.548-.805.238-1.647.15-2.524-.266l-1.43-.677-1.396 2.948-1.708-.81zm3.812-3.632l1.43.677c.396.188.756.224 1.079.109.336-.12.59-.361.761-.724.168-.355.185-.697.053-1.028-.124-.328-.375-.581-.755-.76l-1.43-.678-1.138 2.404zM45.997 82.593l1.016-5.322 1.856.355-1.042 5.459c-.124.65-.038 1.195.259 1.631.298.428.745.699 1.341.812.605.116 1.12.029 1.547-.26.436-.297.717-.771.841-1.422l1.042-5.46 1.857.355-1.016 5.322c-.226 1.183-.77 2.062-1.63 2.64-.86.576-1.85.758-2.969.544-1.127-.215-1.985-.75-2.573-1.603-.578-.851-.755-1.868-.53-3.051zM57.116 87.908l-.447-9.23 1.888-.09.364 7.522 4.042-.195.082 1.706-5.929.287zM72.09 85.587l-.823-1.02-3.64 1.016-.175 1.3-1.956.545 1.448-10.172.606-.17 6.495 7.955-1.955.546zm-1.874-2.34l-2.027-2.676-.347 3.339 2.374-.663zM84.568 79.634l-1.847 1.057-3.698-1.643-1.203.689 1.62 2.831-1.64.939-4.59-8.02 3.014-1.725c.843-.482 1.672-.639 2.488-.472.817.168 1.445.636 1.885 1.406.288.502.422 1.028.402 1.576a2.81 2.81 0 01-.504 1.515l4.073 1.847zm-8.89-3.64l1.315 2.297 1.373-.786c.38-.218.616-.492.706-.823.098-.336.048-.678-.152-1.027-.194-.34-.465-.55-.813-.631-.339-.086-.69-.024-1.055.184l-1.374.786z" fill="#FBAE66"/><g clip-path="url(#clip0)"><path d="M65.237 57.966l.002-.01c.26-1.355.318-2.55.18-3.756a1.005 1.005 0 00-.006-.054c-.008-.066-.845-6.61 1.154-9.546a.966.966 0 00-.59-1.488c-.083-.019-1.798-.378-4.014.72-.702-3.659-.028-7.165-.02-7.203a.966.966 0 00-1.217-1.117c-2.877.832-5.279 2.145-7.14 3.902a13.903 13.903 0 00-3.413 5.065 15.309 15.309 0 00-.99 4.224l-2.972-2.26a.966.966 0 00-1.413.27c-.422.7-.773 1.358-1.074 2.01-1.049 2.271-1.534 4.755-1.404 7.183.13 2.441.876 4.713 2.155 6.57a10.77 10.77 0 005.375 4.103c.202.079.41.148.623.206.045.012.09.022.136.033l.11.03c1.428.383 2.99.524 4.655.41 2.641-.18 4.997-1.31 6.812-3.264 1.51-1.625 2.593-3.766 3.051-6.028zm-8.631 3.624c-.365 1.317-1.865 3.331-3.929 3.472a5.303 5.303 0 01-1.543-.105 9.881 9.881 0 01-.646-.204 3.582 3.582 0 01-1.608-1.302c-.858-1.245-.994-3.03-.376-4.638.748.54 1.837.991 3.287.982 2.332-.013 3.783-2.133 4.589-3.909.053-.117.104-.234.153-.35.676 3.026.42 4.801.073 6.054zm4.164 1.088c-1.161 1.25-2.542 2.067-4.117 2.44.866-.872 1.525-1.962 1.816-3.013.778-2.814.475-5.977-.984-10.257a.966.966 0 00-1.864.132c-.289 1.522-1.614 5.87-3.842 5.883-1.896.01-2.62-1.06-2.688-1.17a.942.942 0 00-.825-.505.967.967 0 00-.853.497c-.036.061-.349.605-.517.969a7.55 7.55 0 00-.675 3.941 9.276 9.276 0 01-.154-.216c-1.078-1.563-1.706-3.491-1.817-5.576-.113-2.115.312-4.283 1.229-6.27.134-.29.28-.584.44-.884l3.616 2.75a.966.966 0 001.547-.865c-.002-.025-.229-2.553.92-5.424a11.979 11.979 0 012.95-4.327c1.314-1.23 2.949-2.215 4.874-2.938-.177 1.777-.272 4.788.57 7.753a.966.966 0 001.486.527c.875-.616 1.67-.912 2.295-1.048-1.352 3.6-.758 8.707-.685 9.28 0 .01.002.019.003.028.12 1.016.07 2.033-.153 3.202-.39 1.917-1.303 3.725-2.572 5.091z" fill="#FBAE66"/></g><defs><clipPath id="clip0"><path fill="#fff" transform="rotate(15 -94.972 180.023)" d="M0 0h33v33H0z"/></clipPath></defs></svg>
